X:1
T:Andrew Carr
S:Daniel Wright coll'n without title page, c 1735
S:Wighton collection, Dundee.
Q:120
L:1/8
M:9/8
K:G
~B2d dBG dBG|~B2e efg~f2A|~B2d def efg|D2G GAB~A2G||\
g2d dBG eBG|g2e eae~f2{e/}d|gfe dBd def|g2G GAB~A2G|]
